X: 2
T: Tha Mi Sgith
M: 4/4
L: 1/4
C: Trad
R: Strathspey
Z: Transcribed by Tom Ellett from playing by Turner Collins, Madison, WI, USA=97don't
S: Tom Ellett <tellett@yahoo.com>     irtrad-l 2000-10-17
K: Am
|: A<A a2  | g<e g2  | e>d B<A | G>A B<G | A<A a2  | g<e g2  | e>d B<e | A2 A2 :|
|: e>d B<A | G>A B<G | e>d B<A | B<d d2  | e>d B<A | G>A B<G | e>d B<e | A2 A2 :|
